!!!SOCIAL_FUNCTION:	songs with treatment of the sick
!!!PDT:	1943
!!!OTL: No_23_Song_of_a_Medicine_Man_at_Nitinat_Lake_(a).krn
!!!REG: British Columbia
**kern	**kern
*staff2	*staff1
=1-	=1-
=	=
*clefF4	*clefF4
*k[b-e-a-]	*k[b-e-a-]
*M2/4	*M2/4
8GG/L	8r
8GG/J	8c\
8GG/L	8c\L
8GG/J	8B-\J
=2:|!|:	=2:|!|:
8GG/L	[2c\
8GG/J	.
4r	.
=3	=3
2r	8c\L]
.	8d\J
.	8c\L
.	8B-\J
=4||	=4||
*M3/4	*M3/4
2.r	4c\
.	8B-\
.	8r
.	8c\L
.	8B-\J
=5||	=5||
*M2/4	*M2/4
2r	(2c\
=6	=6
2r	16B-\)
.	16r
.	8B-\
.	8B-\L
.	8B-\J
=7||	=7||
*M7/8	*M7/8
2..r	4B-\
.	8G\
.	8r
.	8c\L
.	8c\
.	8c\J
=8||	=8||
*M5/8	*M5/8
3...r	8c\L
.	16B-\Jk
.	16r
.	16c\LL
.	16B-\J
.	8B-\
.	8B-\J
=9	=9
3...r	4B-\
.	8G\
.	8r
.	16c\LL
.	16B-\JJ
=10||	=10||
*M2/4	*M2/4
2r	8B-\L
.	8B-\J
.	16c\LL
.	16B-\J
.	8G\J
=11	=11
2r	8G\L
.	8G\J
.	8G\L
.	8G\J
=12||	=12||
*M5/8	*M5/8
3...r	8G\L
.	16G\L
.	16F\JJ
.	8r
.	8B-\L
.	8G\J
=13||	=13||
*M3/4	*M3/4
2.r	[2G\
.	8G\]
.	8r
=14	=14
2.r	8B-\L
.	8G\J
.	4G\
.	8F\L
.	8E-\J
=15||	=15||
*M2/4	*M2/4
2r	12E-/L
.	12C/
.	12C/J
.	8C/
.	8r
=16	=16
2r	2B-\
=17||	=17||
*M3/4	*M3/4
2.r	4.B-\
.	16G\
.	16r
.	8c\L
.	8B-\J
=18||	=18||
*M2/4	*M2/4
2r	8c\L
.	8B-\J
.	8G\
.	8r
=19	=19
2r	8B-\L
.	8G\J
.	8G\L
.	8G\J
=20||	=20||
*M3/4	*M3/4
2.r	12F\L
.	12E-\
.	12C\J
.	8r
.	8B-\
.	8B-\L
.	8B-\J
=21||	=21||
*M2/4	*M2/4
2r	12B-\L
.	12G\
.	12G\J
.	8G\L
.	8G\J
=22	=22
2r	8G\L
.	8F\J
.	8F\L
.	8E-\J
=23	=23
2r	8C/L
.	8F/J
.	4E-\
=24||	=24||
*M3/4	*M3/4
2.r	8E-/L
.	8C/J
.	2C/
=25	=25
2.r	4C/
.	8r
.	8c\
.	8c\L
.	8B-\J
=26:|!	=26:|!
2.r	4C/
.	2r
==	==
*-	*-
